!!!OTL: Verzweiflung (126b), S. 287
!!!id: T0294
**kern
*clefG2
*k[f#]
*G:
{4d
=1
4b
8a
8g
8g
8f#
8e
8d
=2
8d
8b
4g}
4r
=3
{8g
8a
=4
4b
8b
8b
4b
8a
8b
=5
4cc}
2r
=6
{8cc
8b
=7
8a
8d
8d
8dd
8dd
8dd
8cc
8cc
=8
4b}
2r
=9
{8dd
8dd
=10
8dd
8b
8b
8dd
4dd
8cc
8b
=11
4cc}
2r
=12
{8cc
8b
=13
8a
8d
8d
8dd
8dd
8dd
8cc
8cc
=14
4b}
2r
==
*-
!!!minrhy: 8
!!!meters: 4/4 ]  ZZ[5
!!!cut: Verzweiflung (126b), S. 287
!!!reg: Luxemburg
!!!trd: Singendes Volk, Esch-Alzette 1937 posth.
!!!rhy1: X_  X_XXXXXX  XXX_0_
!!!rhy2: XX  X_XXX_XX  X_0__
!!!key: T0294  08  G 4/4 ]  ZZ[5
!!!mod: HEPTATONIK IONISCH]  AMBITUS[8
!!!kad: 14343
!!!akz: 31-5_334_253_554_253_
!!!fot: 'a__b__c__d__c__
!!!for: 'a__b__c__d__c__
!!!fok: '^a_/__\__\__\__
!! PHRAS[AUFTAKTIG]
!!!fkt: Liebeslieder
!!!bem1: Heffingen, fff Anna Kimmel, 12.3.1933
!!!bem2: (126c)- Grevenmacher fff Wilhelm Weins, Esch-Alzette, 1915
!!!bem3: (126d)- Junglinster, hhh Vater des Verfassers
!! THILL, Mathias:
!! PR[17] 2K[3] 2G[9] 3K[0] 3G[0] 4A[5] 4Ü[0] 5A[2] 6K[0] 6G[11]
!! 7K[2] 7G[0] 8A[0] MEHR[0] SI[31] ABS[64] SR[13] SP[19]
!! ST[16] 2k[0] 2g[28] 3k[11] 3g[5] 4d[3] 4ü[0] 5d[3] 6k[2] 6g[0]
!! 7k[0] 7g[0] 8d[0] mehr[0] si[52] dm[-21] sr[28] sp[23]
!! 1F[3] 2F[54] 3F[39] 4F[0] LF[0] 2P[3] 3P[1] 4P[0] TRI[0] DF[5] AB[69]
!! TF[0] U3K[0] U3[8] U4[8] U4Ü[0] U5[32] U6K[0] U6[9] U7K[0] U7[0]
!! N1[11] N2K[0] N2[12] N3K[0] N3[15] N4[3] N4Ü[0] N5[2] N6K[0] N6[0]
!!!n7k: 0] N7[0] O1[0] O2K[0] O2[0] O3K[0] O3[0] HÖ[0
